modules/coreui-icons-brand/icons/flask.svg

<svg xmlns="http://www.w3.org/2000/svg" width="32" height="32" viewBox="0 0 32 32"><path d="M9.563 27.542c-1.219-.964-2.521-1.88-3.406-3.177-1.87-2.281-3.313-4.922-4.297-7.703-.594-1.802-.797-3.74-1.563-5.479-.802-1.255.135-2.635 1.516-3.036.615-.12 1.698-.698.391-.281-1.172.854-1.281-.781-.083-.885.818-.109 1.12-.781.839-1.38-.875-.573 2.135-1.203.62-2.063-1.578-1.703 2.208-2.031 1.276-.099-.224 1.49 2.646-.271 1.979 1.448.677.823 2.531.188 2.484 1.344.99.068 1.328.896 2.25.958.964.438 2.698.776 3.026 1.854-.953.755-3.156-1.552-3.26.531.286 3.078.214 6.25 1.339 9.182.536 1.776 1.828 3.177 2.995 4.557 1.115 1.359 2.625 2.307 4.167 3.115 1.354.635 2.813 1.057 4.286 1.323.594-.458 1.651-2.156 2.583-1.438.042.802-1.849 1.682-.089 1.594 1.031-.313 1.75.797 2.604-.203.781.927 3.26-.594 2.703 1.307-.755.484-1.859.193-2.615.859-1.245-.62-2.24.557-3.62.411a26.704 26.704 0 01-4.646.385c-2.547-.203-5.151-.286-7.578-1.172-1.365-.401-2.698-1.177-3.901-1.953zm2.151.932c1.333.573 2.641 1.182 4.104 1.37 2.318.318 4.714.818 7.042.365-1.052-.479-2.146.188-3.193-.344-1.26.271-2.609-.068-3.891-.234-1.453-.646-3.026-1.094-4.391-1.938-1.698-.62.88.797 1.344.917 1.063.604-1.172-.313-1.484-.563-.891-.5-1.005-.396-.089.109.182.109.365.224.557.318zm-2.537-1.797c1.292.479-.005-.906-.599-.828-.26-.453-1-.745-.479-.984-.943.323-.984-1.24-1.427-1.021-.995-.313-.385-1.422-1.568-2.104-.109-.719-1.177-1.344-1.521-2.432-.151-.552-1.203-2.151-.557-.667.552 1.432 1.526 2.656 2.333 3.88.63 1.161 1.37 2.38 2.516 3.104.385.37.755.938 1.302 1.052zm-3.724-4.088c.042-.193.234.422 0 0zm5.271 4.661c.286-.125-.411-.156 0 0zm.703.26c-.073-.354-.323.193 0 0zm.88.365c.417-.401-.646-.25 0 0zm1.506.839c.255-.375-.818-.141 0 0zm-2.891-2.016c.646-.422-.844-.005 0 0zm.656.328c-.016-.224-.234.099 0 0zm3.292 2.057c.531.333 3.094.729 1.49.135-.266.057-2.974-.766-1.49-.135zM9.646 25.01c-.052-.224-.823-.25 0 0zm1.531.891c.401-.276-.828-.214 0 0zm1.292.792c.573-.214-.932-.219 0 0zm-3.448-2.365c.62.479 2.505.063.953-.281-.708-.38-2.302-.635-1.219.224zm4.318 2.641c.26-.443-1.083-.255 0 0zm-1.313-1.047c1.521.432-1.276-.958-.375-.156l.203.089zm2.635 1.521c1.437.016-1.302-.198 0 0zm-6.192-3.948c-.057-.266-.354.026 0 0zm8.625 5.312c.036-.484-.469.365 0 0zM10.922 25c-.089-.255-.448-.01 0 0zm-2.318-1.672c.823-.047-1.13-.365 0 0zm-2.75-1.776c-.099-.396-.896-.708 0 0zm7.214 4.583c-.151-.177-.073.036 0 0zm4.484 2.75c-.01-.26-.24.099 0 0zm-4.88-3.161c.078-.344-.708-.104 0 0zm-3.344-2.125c.609-.063-.984-.411 0 0zm5.656 3.516c.953-.38-.938-.188 0 0zm-2.942-1.995c1.104.141-1.313-.75-.245-.078zm3.833 2.359c1.031-.62.693 1.443 1.75.172 1.042-.76-.901.943.385.135.927-.62 2.302.297 3.167.594.625-.031 1.234.542 1.87.193 1.234-.333-2.406-.49-1.453-1.078-1.125.328-1.958-.391-2.51-1.115-1.266-.292-2.724-.938-3.354-2.057-.26-.417.37.063-.224-.625-.76-.677-1.141-1.448-1.651-2.271-.609-.323-.682-1.281-.745-.031.005-.792-.74-1.323-.917-1.099-.005-.76.792-.38.234-.943-.12-.792-.516-1.615-.635-2.505-.182-.427-.026-1.344-.63-.375-.219 1.026-.073-1.26.271-.505.448-.771-.161-.682-.188-.573.292-.651.188-1.573-.078-1.224.156-.688.25-2.536-.234-2.208.292-.719.552-3.297-.708-2.313-.516.005-1.401.188-1.818.396 1.313.724-.135.26-.667.146-.068.667-.599.38-1.26.385 1.057.13-.516 1.078-1.125.714-.786.375.682 1.313.016 1.604.083.438-1.203-.156-1.104.854-.766-.323-.104 1.203.276.688 1.302.349.917 1.151.948 1.917-.208.443-1.042-1.047-.182-.979-.677-1.099-.75-.396-1.318.115-.13.036 1.443.729.458 1.073.865.13.891.891 1.063 1.37.521.547.417-.599 1.042.057-.396-.583-2.089-1.641-.729-1.302-.005-.583-.245-1.057.172-1.042.417-.75-.432 1.849.5.896.26-.115.323-.75.792.057.672.667.24 1.146-.708.536.167.578 1.271.786 1.063 1.688.219.797.526.5.797.458.208.771.328.203.339-.167.964.208.734.776 1.036 1.177.661.297-.948-2.031.193-.703 1.193 1.083.448 1.531-.63 1.359.682-.052.901.922 1.75.885.776.37 1.302 1.786-.036 1.198-.464-.417-2.104-.938-.76-.141 1.24.573 2.219.917 3.417 1.635.849.609 1.224 1.313 1.547 1.448-.719.344-2.167-.276-1.094-.464-.667-.12-1.422-.458-.781.375.547.458 1.932.406 2.182.458-.214.464-.573.5.01.536-.651.349.208.401.266.599zm-1.323-3.745c-.396-.417-.5-1.188-.073-.516.219.089.703 1.266.073.516zm4.318 2.74c.245-.01.005.188 0 0zm-4.943-3.755c-.016-.62.141.484 0 0zm-.432-.573c-.495-.958.63.271 0 0zm-5.198-3.594c.292-.078.141.5 0 0zm4.141 2.245c.177-.672.208.568 0 0zM9.51 18.766c-.203-.37.432.349 0 0zm2.511.802c-.469-1.052.333-.573.104.177zm-4.328-2.886c-.208-.344-.557-1.359-.443-1.667.099.5 1.068 2.167.474.688-.656-1.24.786.401.938.714.068.307-.406-.083-.089.635-.583-.823-.344.453-.88-.37zm-1.339-.922c.057-.802.307.552 0 0zm.604.209c.286-.609.484.844 0 0zm-1.448-1.12c-.5-.495-.859-.953.021-.307.344.01-.75-1.036.083-.333.88.161.432 1.443-.104.641zm.761-.021c.292-.286.151.281 0 0zm.469.151c-.438-.823.531.344 0 0zm-.933-.89c-1.448-1.286 1.823.677.234.24zM9.958 16.5c-.63-.375-.167-2.646.047-1.094.609-.198-.036.802.417.792-.068.63-.271.859-.464.302zm1.532.906c.063-.682.13.469 0 0zm-.266-.265c.068-.292.005.344 0 0zm-5.13-3.474c-.932-1.286 2.703 1.297.594.323-.219-.057-.484-.078-.594-.323zm2.953 1.567c-.089-1.083.198.177 0 0zm2.245 1.438c.172-.615.01.406 0 0zm-5.058-3.495c.552-.12 2.292.969.693.313-.177-.198-.552-.109-.693-.313zm4.745 2.365c.063-1.104.333-.661.005.156zm-4.333-2.75c.224-.328-.599-1.495.12-.417.307.245.896.411.375.516.818.719-.198.193-.495-.099zm4.099 2.406c.156-1.26.141.734 0 0zM6.177 11.63c.172-.073.089.229 0 0zm1.068.636c.276-.578.505.646 0 0zm3.015 1.682c0-.224.057.318 0 0zm-.171-.391c-.417-1.031.391.547 0 0zm-.261-.677c-.068-.427.245.536 0 0zm.422-.682c-.286-.505.365-2.229.432-1.161-.302.833-.083 1.302.125.182.391-.88-.083 1.74-.557.979zm.427-2.563c.125-.156.031.182 0 0zm-.713 14.151c-.172-.151.021.094 0 0zm1.479.745c.818.214.818-.125.073-.224-.401-.375-1.661-.771-.531-.047.073.188.313.182.453.271zm-2.922-1.937c.453.339 1.703.958.641.125.359-.411-.682-.635-.339-.911-.875-.542-.693-.49-.073-.474-1.063-.474.151-.438.094-.682-.411-.078-2.026-.719-1.073.052-.969-.49-.234.188-.526.115-.99-.271.88.755-.156.5.568.448 1.531 1.151.24.474-.172.245.922.615 1.193.802zm1.547.89c1.88.604-.922-.745 0 0zm7.916 4.797c.026-.375-.255.318 0 0zm.818.344c.432-.422.016.667.719-.104.005-.552-.021-.88-.807-.208-.219.12-.313.63.089.313zm-12.927-8.12c-.13-.521-.932-.521 0 0zm.87.573c-.323-.536-1.151-.484 0 0zm4.948 2.985c.484.427 2.219.313.589.052-.245-.359-1.536-.271-.589-.052zm6.797 4.197c.745-.625-.719.276 0 0zm1.546 1.058c.005-.198-.318.089 0 0zm0-.276c.823-.875-.797.052 0 0zM3.74 18.719c-.703-1-.438-1.453-1.115-2.266-.125-.63-1.156-2.047-.531-.542.573.875.745 2.234 1.646 2.807zM19.781 28.76c1.516-.974-.62-.422 0 0zm1.157.454c.76-.646-.479-.135 0 0zM5.62 19.401c.219-.323-.557-.042 0 0zm15.073 9.505c.734-.474-.167-.401-.13.042zm-9.959-6.281c-.026-.318-.391.026 0 0zm.615.354c-.198-.396-.302.063 0 0zm10.526 6.25c.938-.682-.573-.135-.198.125zm-.359-.177c.766-.641-.813.286 0 0zm1.838 1.224c.516-.344-.625-.109 0 0zM6.094 19.167c.688.156 2.755 1.698 1.536.109-.625-.188-.25-1.714-.891-1.443.427.714.354 1.021-.542.568-1.13-.547-.635.276-.417.5-.297.068.401.26.313.266zm-3.141-2.479c.12-.51-1.141-2.807-.599-1.151.198.344.177 1.005.599 1.151zm5.761 3.557c-.354-.297-.016-.047 0 0zm.875.203c0-.542-.964-.219 0 0zm7.578 4.776c-.146-.37-.573-.01 0 0zm.364.266c-.052-.208-.208.036 0 0zm3.005 1.89c.286-.214-.359-.026 0 0zM4.521 17.089c.828-.323-.885-.229 0 0zM16.5 24.635c-.01-.536-.526.135 0 0zM4.193 16.328c.531-.182-.49-.12 0 0zm1.541.745c-.01-.177-.161.068 0 0zm18.787 11.521c.682-.135 2.24.349 2.49-.182-.828-.016-2.87-.583-2.964.135l.182.031zM6.224 17.198c.01-.542-.422-.021 0 0zm-4.052-2.813c-.182-1.031-.698-.156 0 0zm.969.245c.01-.333-.885-.302 0 0zm.552.271c-.161-.13-.125.161 0 0zm3.468 2.224c.167-.146-.385-.109 0 0zm-3.838-2.833c-.094-.781-1.12-.12 0 0zm-1.979-1.287c-.026-.359-.193.135 0 0zm.291-.224c-.047-.427-.25.052 0 0zm1.631.974c.688-.271-1.255-.563-.141-.052zm21.776 13.448c.443-.401-.557-.125 0 0zm2.635 1.365c.172-.521-.448.068 0 0zM3.432 12.901c.073-.505-.547.099 0 0zm-2.317-1.552c-.125-.714-.104-1.964 1.083-1.542-1.589.318 1.099 1.974.76.667.667.031 1.307-.396.953.255 1.318-.146 2.229-1.286 3.5-1.13.99-.13 2.073-.229 3.141-.625.875-.068 1.719-1.01 1.24-1.568-1.198-.104-2.448.047-3.771.307-1.464.307-2.792.885-4.271 1.135-1.443.193.286.531-.125.609-.75.26.896.438-.099.708-.609-.115-1.25-.328-.99-.974-1.38.177-2.594.755-1.5 2.156zm3.328-1.693c.323-1.193 1.734.979.531.156-.146-.104-.38-.193-.531-.156zm.062-.578c.464-.344.245.193 0 0zm.594.011c.042-.547 1.354.292.214.198zm.807-.329c.297-.344.089.313 0 0zm.209-.135c.495-.594 2.797-.38 1.109-.057-.448-.339-.797.198-1.109.057zm3.005-.464c-.078-1.62 1.49.578 0 0zm.849-.005c.313-.818 1.208-.328.146-.167.021.089-.031.422-.146.167zm-6.875 4.328c.932-.573-.984-.495 0 0zm.687.193c.328-.349-.708-.146 0 0zm-2.026-1.443c.531-.406-.625-.156 0 0zm27.474 17.188c.016-.474-.406.214 0 0zm-2.791-1.906c.078-.547-.359.047 0 0zm3.557 2.088c.745 0 2.25-.229.635-.229-.255.042-1.479.031-.635.229zM4.385 12.339c.604-.042.943-.661-.115-.625-1.641-.172 1.443.557-.208.349-.224.146.313.318.323.276zm.532.27c-.063-.391-.188.203 0 0zm.625-1.677c.266-.323-.359-.089 0 0zm-2-3.343c1.078-.365 2.547-.776 3.052.177-.516-.62-.208-1.229.281-.323.688.922 1.031-.417.583-.724.51.635 1.089.932.344.036.813-.974-1.63.13-2.188.12-.266.12-2.76.635-2.068.714zm.63-1.204c.615-.464 2.12.271 1.151-.464-.089-.078-2.115.557-1.151.464zm2.234.089c.719.021-.307-.958.547-.516-.141-.458-.995-.547-1.417-.729-.234.422.484 1.25.87 1.245zM4.568 4.448c.245-.333-.438.172 0 0zm.911.219c1.151-.151-.297-.495-.234-.01zM3.776 3.333c-.813-1.063 1.526.182.703-.932-.698-.552-1.365.625-.703.932zm10.432 5.62c.375-.661-1.542-.891-.25-.234.12.042.089.281.25.234z"/></svg>

<svg version="1.1" xmlns="http://www.w3.org/2000/svg" width="32" height="32" viewBox="0 0 32 32">
<title>flask</title>
<path d="M9.563 27.542c-1.219-0.964-2.521-1.88-3.406-3.177-1.87-2.281-3.313-4.922-4.297-7.703-0.594-1.802-0.797-3.74-1.563-5.479-0.802-1.255 0.135-2.635 1.516-3.036 0.615-0.12 1.698-0.698 0.391-0.281-1.172 0.854-1.281-0.781-0.083-0.885 0.818-0.109 1.12-0.781 0.839-1.38-0.875-0.573 2.135-1.203 0.62-2.063-1.578-1.703 2.208-2.031 1.276-0.099-0.224 1.49 2.646-0.271 1.979 1.448 0.677 0.823 2.531 0.188 2.484 1.344 0.99 0.068 1.328 0.896 2.25 0.958 0.964 0.438 2.698 0.776 3.026 1.854-0.953 0.755-3.156-1.552-3.26 0.531 0.286 3.078 0.214 6.25 1.339 9.182 0.536 1.776 1.828 3.177 2.995 4.557 1.115 1.359 2.625 2.307 4.167 3.115 1.354 0.635 2.813 1.057 4.286 1.323 0.594-0.458 1.651-2.156 2.583-1.438 0.042 0.802-1.849 1.682-0.089 1.594 1.031-0.313 1.75 0.797 2.604-0.203 0.781 0.927 3.26-0.594 2.703 1.307-0.755 0.484-1.859 0.193-2.615 0.859-1.245-0.62-2.24 0.557-3.62 0.411-1.531 0.271-3.094 0.385-4.646 0.385-2.547-0.203-5.151-0.286-7.578-1.172-1.365-0.401-2.698-1.177-3.901-1.953zM11.714 28.474c1.333 0.573 2.641 1.182 4.104 1.37 2.318 0.318 4.714 0.818 7.042 0.365-1.052-0.479-2.146 0.188-3.193-0.344-1.26 0.271-2.609-0.068-3.891-0.234-1.453-0.646-3.026-1.094-4.391-1.938-1.698-0.62 0.88 0.797 1.344 0.917 1.063 0.604-1.172-0.313-1.484-0.563-0.891-0.5-1.005-0.396-0.089 0.109 0.182 0.109 0.365 0.224 0.557 0.318zM9.177 26.677c1.292 0.479-0.005-0.906-0.599-0.828-0.26-0.453-1-0.745-0.479-0.984-0.943 0.323-0.984-1.24-1.427-1.021-0.995-0.313-0.385-1.422-1.568-2.104-0.109-0.719-1.177-1.344-1.521-2.432-0.151-0.552-1.203-2.151-0.557-0.667 0.552 1.432 1.526 2.656 2.333 3.88 0.63 1.161 1.37 2.38 2.516 3.104 0.385 0.37 0.755 0.938 1.302 1.052zM5.453 22.589c0.042-0.193 0.234 0.422 0 0zM10.724 27.25c0.286-0.125-0.411-0.156 0 0zM11.427 27.51c-0.073-0.354-0.323 0.193 0 0zM12.307 27.875c0.417-0.401-0.646-0.25 0 0zM13.813 28.714c0.255-0.375-0.818-0.141 0 0zM10.922 26.698c0.646-0.422-0.844-0.005 0 0zM11.578 27.026c-0.016-0.224-0.234 0.099 0 0zM14.87 29.083c0.531 0.333 3.094 0.729 1.49 0.135-0.266 0.057-2.974-0.766-1.49-0.135zM9.646 25.010c-0.052-0.224-0.823-0.25 0 0zM11.177 25.901c0.401-0.276-0.828-0.214 0 0zM12.469 26.693c0.573-0.214-0.932-0.219 0 0zM9.021 24.328c0.62 0.479 2.505 0.063 0.953-0.281-0.708-0.38-2.302-0.635-1.219 0.224zM13.339 26.969c0.26-0.443-1.083-0.255 0 0zM12.026 25.922c1.521 0.432-1.276-0.958-0.375-0.156l0.203 0.089zM14.661 27.443c1.437 0.016-1.302-0.198 0 0zM8.469 23.495c-0.057-0.266-0.354 0.026 0 0zM17.094 28.807c0.036-0.484-0.469 0.365 0 0zM10.922 25c-0.089-0.255-0.448-0.010 0 0zM8.604 23.328c0.823-0.047-1.13-0.365 0 0zM5.854 21.552c-0.099-0.396-0.896-0.708 0 0zM13.068 26.135c-0.151-0.177-0.073 0.036 0 0zM17.552 28.885c-0.010-0.26-0.24 0.099 0 0zM12.672 25.724c0.078-0.344-0.708-0.104 0 0zM9.328 23.599c0.609-0.063-0.984-0.411 0 0zM14.984 27.115c0.953-0.38-0.938-0.188 0 0zM12.042 25.12c1.104 0.141-1.313-0.75-0.245-0.078zM15.875 27.479c1.031-0.62 0.693 1.443 1.75 0.172 1.042-0.76-0.901 0.943 0.385 0.135 0.927-0.62 2.302 0.297 3.167 0.594 0.625-0.031 1.234 0.542 1.87 0.193 1.234-0.333-2.406-0.49-1.453-1.078-1.125 0.328-1.958-0.391-2.51-1.115-1.266-0.292-2.724-0.938-3.354-2.057-0.26-0.417 0.37 0.063-0.224-0.625-0.76-0.677-1.141-1.448-1.651-2.271-0.609-0.323-0.682-1.281-0.745-0.031 0.005-0.792-0.74-1.323-0.917-1.099-0.005-0.76 0.792-0.38 0.234-0.943-0.12-0.792-0.516-1.615-0.635-2.505-0.182-0.427-0.026-1.344-0.63-0.375-0.219 1.026-0.073-1.26 0.271-0.505 0.448-0.771-0.161-0.682-0.188-0.573 0.292-0.651 0.188-1.573-0.078-1.224 0.156-0.688 0.25-2.536-0.234-2.208 0.292-0.719 0.552-3.297-0.708-2.313-0.516 0.005-1.401 0.188-1.818 0.396 1.313 0.724-0.135 0.26-0.667 0.146-0.068 0.667-0.599 0.38-1.26 0.385 1.057 0.13-0.516 1.078-1.125 0.714-0.786 0.375 0.682 1.313 0.016 1.604 0.083 0.438-1.203-0.156-1.104 0.854-0.766-0.323-0.104 1.203 0.276 0.688 1.302 0.349 0.917 1.151 0.948 1.917-0.208 0.443-1.042-1.047-0.182-0.979-0.677-1.099-0.75-0.396-1.318 0.115-0.13 0.036 1.443 0.729 0.458 1.073 0.865 0.13 0.891 0.891 1.063 1.37 0.521 0.547 0.417-0.599 1.042 0.057-0.396-0.583-2.089-1.641-0.729-1.302-0.005-0.583-0.245-1.057 0.172-1.042 0.417-0.75-0.432 1.849 0.5 0.896 0.26-0.115 0.323-0.75 0.792 0.057 0.672 0.667 0.24 1.146-0.708 0.536 0.167 0.578 1.271 0.786 1.063 1.688 0.219 0.797 0.526 0.5 0.797 0.458 0.208 0.771 0.328 0.203 0.339-0.167 0.964 0.208 0.734 0.776 1.036 1.177 0.661 0.297-0.948-2.031 0.193-0.703 1.193 1.083 0.448 1.531-0.63 1.359 0.682-0.052 0.901 0.922 1.75 0.885 0.776 0.37 1.302 1.786-0.036 1.198-0.464-0.417-2.104-0.938-0.76-0.141 1.24 0.573 2.219 0.917 3.417 1.635 0.849 0.609 1.224 1.313 1.547 1.448-0.719 0.344-2.167-0.276-1.094-0.464-0.667-0.12-1.422-0.458-0.781 0.375 0.547 0.458 1.932 0.406 2.182 0.458-0.214 0.464-0.573 0.5 0.010 0.536-0.651 0.349 0.208 0.401 0.266 0.599zM14.552 23.734c-0.396-0.417-0.5-1.188-0.073-0.516 0.219 0.089 0.703 1.266 0.073 0.516zM18.87 26.474c0.245-0.010 0.005 0.188 0 0zM13.927 22.719c-0.016-0.62 0.141 0.484 0 0zM13.495 22.146c-0.495-0.958 0.63 0.271 0 0zM8.297 18.552c0.292-0.078 0.141 0.5 0 0zM12.438 20.797c0.177-0.672 0.208 0.568 0 0zM9.51 18.766c-0.203-0.37 0.432 0.349 0 0zM12.021 19.568c-0.469-1.052 0.333-0.573 0.104 0.177zM7.693 16.682c-0.208-0.344-0.557-1.359-0.443-1.667 0.099 0.5 1.068 2.167 0.474 0.688-0.656-1.24 0.786 0.401 0.938 0.714 0.068 0.307-0.406-0.083-0.089 0.635-0.583-0.823-0.344 0.453-0.88-0.37zM6.354 15.76c0.057-0.802 0.307 0.552 0 0zM6.958 15.969c0.286-0.609 0.484 0.844 0 0zM5.51 14.849c-0.5-0.495-0.859-0.953 0.021-0.307 0.344 0.010-0.75-1.036 0.083-0.333 0.88 0.161 0.432 1.443-0.104 0.641zM6.271 14.828c0.292-0.286 0.151 0.281 0 0zM6.74 14.979c-0.438-0.823 0.531 0.344 0 0zM5.807 14.089c-1.448-1.286 1.823 0.677 0.234 0.24zM9.958 16.5c-0.63-0.375-0.167-2.646 0.047-1.094 0.609-0.198-0.036 0.802 0.417 0.792-0.068 0.63-0.271 0.859-0.464 0.302zM11.49 17.406c0.063-0.682 0.13 0.469 0 0zM11.224 17.141c0.068-0.292 0.005 0.344 0 0zM6.094 13.667c-0.932-1.286 2.703 1.297 0.594 0.323-0.219-0.057-0.484-0.078-0.594-0.323zM9.047 15.234c-0.089-1.083 0.198 0.177 0 0zM11.292 16.672c0.172-0.615 0.010 0.406 0 0zM6.234 13.177c0.552-0.12 2.292 0.969 0.693 0.313-0.177-0.198-0.552-0.109-0.693-0.313zM10.979 15.542c0.063-1.104 0.333-0.661 0.005 0.156zM6.646 12.792c0.224-0.328-0.599-1.495 0.12-0.417 0.307 0.245 0.896 0.411 0.375 0.516 0.818 0.719-0.198 0.193-0.495-0.099zM10.745 15.198c0.156-1.26 0.141 0.734 0 0zM6.177 11.63c0.172-0.073 0.089 0.229 0 0zM7.245 12.266c0.276-0.578 0.505 0.646 0 0zM10.26 13.948c0-0.224 0.057 0.318 0 0zM10.089 13.557c-0.417-1.031 0.391 0.547 0 0zM9.828 12.88c-0.068-0.427 0.245 0.536 0 0zM10.25 12.198c-0.286-0.505 0.365-2.229 0.432-1.161-0.302 0.833-0.083 1.302 0.125 0.182 0.391-0.88-0.083 1.74-0.557 0.979zM10.677 9.635c0.125-0.156 0.031 0.182 0 0zM9.964 23.786c-0.172-0.151 0.021 0.094 0 0zM11.443 24.531c0.818 0.214 0.818-0.125 0.073-0.224-0.401-0.375-1.661-0.771-0.531-0.047 0.073 0.188 0.313 0.182 0.453 0.271zM8.521 22.594c0.453 0.339 1.703 0.958 0.641 0.125 0.359-0.411-0.682-0.635-0.339-0.911-0.875-0.542-0.693-0.49-0.073-0.474-1.063-0.474 0.151-0.438 0.094-0.682-0.411-0.078-2.026-0.719-1.073 0.052-0.969-0.49-0.234 0.188-0.526 0.115-0.99-0.271 0.88 0.755-0.156 0.5 0.568 0.448 1.531 1.151 0.24 0.474-0.172 0.245 0.922 0.615 1.193 0.802zM10.068 23.484c1.88 0.604-0.922-0.745 0 0zM17.984 28.281c0.026-0.375-0.255 0.318 0 0zM18.802 28.625c0.432-0.422 0.016 0.667 0.719-0.104 0.005-0.552-0.021-0.88-0.807-0.208-0.219 0.12-0.313 0.63 0.089 0.313zM5.875 20.505c-0.13-0.521-0.932-0.521 0 0zM6.745 21.078c-0.323-0.536-1.151-0.484 0 0zM11.693 24.063c0.484 0.427 2.219 0.313 0.589 0.052-0.245-0.359-1.536-0.271-0.589-0.052zM18.49 28.26c0.745-0.625-0.719 0.276 0 0zM20.036 29.318c0.005-0.198-0.318 0.089 0 0zM20.036 29.042c0.823-0.875-0.797 0.052 0 0zM3.74 18.719c-0.703-1-0.438-1.453-1.115-2.266-0.125-0.63-1.156-2.047-0.531-0.542 0.573 0.875 0.745 2.234 1.646 2.807zM19.781 28.76c1.516-0.974-0.62-0.422 0 0zM20.938 29.214c0.76-0.646-0.479-0.135 0 0zM5.62 19.401c0.219-0.323-0.557-0.042 0 0zM20.693 28.906c0.734-0.474-0.167-0.401-0.13 0.042zM10.734 22.625c-0.026-0.318-0.391 0.026 0 0zM11.349 22.979c-0.198-0.396-0.302 0.063 0 0zM21.875 29.229c0.938-0.682-0.573-0.135-0.198 0.125zM21.516 29.052c0.766-0.641-0.813 0.286 0 0zM23.354 30.276c0.516-0.344-0.625-0.109 0 0zM6.094 19.167c0.688 0.156 2.755 1.698 1.536 0.109-0.625-0.188-0.25-1.714-0.891-1.443 0.427 0.714 0.354 1.021-0.542 0.568-1.13-0.547-0.635 0.276-0.417 0.5-0.297 0.068 0.401 0.26 0.313 0.266zM2.953 16.688c0.12-0.51-1.141-2.807-0.599-1.151 0.198 0.344 0.177 1.005 0.599 1.151zM8.714 20.245c-0.354-0.297-0.016-0.047 0 0zM9.589 20.448c0-0.542-0.964-0.219 0 0zM17.167 25.224c-0.146-0.37-0.573-0.010 0 0zM17.531 25.49c-0.052-0.208-0.208 0.036 0 0zM20.536 27.38c0.286-0.214-0.359-0.026 0 0zM4.521 17.089c0.828-0.323-0.885-0.229 0 0zM16.5 24.635c-0.010-0.536-0.526 0.135 0 0zM4.193 16.328c0.531-0.182-0.49-0.12 0 0zM5.734 17.073c-0.010-0.177-0.161 0.068 0 0zM24.521 28.594c0.682-0.135 2.24 0.349 2.49-0.182-0.828-0.016-2.87-0.583-2.964 0.135l0.182 0.031zM6.224 17.198c0.010-0.542-0.422-0.021 0 0zM2.172 14.385c-0.182-1.031-0.698-0.156 0 0zM3.141 14.63c0.010-0.333-0.885-0.302 0 0zM3.693 14.901c-0.161-0.13-0.125 0.161 0 0zM7.161 17.125c0.167-0.146-0.385-0.109 0 0zM3.323 14.292c-0.094-0.781-1.12-0.12 0 0zM1.344 13.005c-0.026-0.359-0.193 0.135 0 0zM1.635 12.781c-0.047-0.427-0.25 0.052 0 0zM3.266 13.755c0.688-0.271-1.255-0.563-0.141-0.052zM25.042 27.203c0.443-0.401-0.557-0.125 0 0zM27.677 28.568c0.172-0.521-0.448 0.068 0 0zM3.432 12.901c0.073-0.505-0.547 0.099 0 0zM1.115 11.349c-0.125-0.714-0.104-1.964 1.083-1.542-1.589 0.318 1.099 1.974 0.76 0.667 0.667 0.031 1.307-0.396 0.953 0.255 1.318-0.146 2.229-1.286 3.5-1.13 0.99-0.13 2.073-0.229 3.141-0.625 0.875-0.068 1.719-1.010 1.24-1.568-1.198-0.104-2.448 0.047-3.771 0.307-1.464 0.307-2.792 0.885-4.271 1.135-1.443 0.193 0.286 0.531-0.125 0.609-0.75 0.26 0.896 0.438-0.099 0.708-0.609-0.115-1.25-0.328-0.99-0.974-1.38 0.177-2.594 0.755-1.5 2.156zM4.443 9.656c0.323-1.193 1.734 0.979 0.531 0.156-0.146-0.104-0.38-0.193-0.531-0.156zM4.505 9.078c0.464-0.344 0.245 0.193 0 0zM5.099 9.089c0.042-0.547 1.354 0.292 0.214 0.198zM5.906 8.76c0.297-0.344 0.089 0.313 0 0zM6.115 8.625c0.495-0.594 2.797-0.38 1.109-0.057-0.448-0.339-0.797 0.198-1.109 0.057zM9.12 8.161c-0.078-1.62 1.49 0.578 0 0zM9.969 8.156c0.313-0.818 1.208-0.328 0.146-0.167 0.021 0.089-0.031 0.422-0.146 0.167zM3.094 12.484c0.932-0.573-0.984-0.495 0 0zM3.781 12.677c0.328-0.349-0.708-0.146 0 0zM1.755 11.234c0.531-0.406-0.625-0.156 0 0zM29.229 28.422c0.016-0.474-0.406 0.214 0 0zM26.438 26.516c0.078-0.547-0.359 0.047 0 0zM29.995 28.604c0.745 0 2.25-0.229 0.635-0.229-0.255 0.042-1.479 0.031-0.635 0.229zM4.385 12.339c0.604-0.042 0.943-0.661-0.115-0.625-1.641-0.172 1.443 0.557-0.208 0.349-0.224 0.146 0.313 0.318 0.323 0.276zM4.917 12.609c-0.063-0.391-0.188 0.203 0 0zM5.542 10.932c0.266-0.323-0.359-0.089 0 0zM3.542 7.589c1.078-0.365 2.547-0.776 3.052 0.177-0.516-0.62-0.208-1.229 0.281-0.323 0.688 0.922 1.031-0.417 0.583-0.724 0.51 0.635 1.089 0.932 0.344 0.036 0.813-0.974-1.63 0.13-2.188 0.12-0.266 0.12-2.76 0.635-2.068 0.714zM4.172 6.385c0.615-0.464 2.12 0.271 1.151-0.464-0.089-0.078-2.115 0.557-1.151 0.464zM6.406 6.474c0.719 0.021-0.307-0.958 0.547-0.516-0.141-0.458-0.995-0.547-1.417-0.729-0.234 0.422 0.484 1.25 0.87 1.245zM4.568 4.448c0.245-0.333-0.438 0.172 0 0zM5.479 4.667c1.151-0.151-0.297-0.495-0.234-0.010zM3.776 3.333c-0.813-1.063 1.526 0.182 0.703-0.932-0.698-0.552-1.365 0.625-0.703 0.932zM14.208 8.953c0.375-0.661-1.542-0.891-0.25-0.234 0.12 0.042 0.089 0.281 0.25 0.234z"></path>
</svg>
